packages/foundations/assets/icons/functional/images/layout/fullscreen_20.svg

<svg width="20" height="20" viewBox="0 0 20 20" fill="none" xmlns="http://www.w3.org/2000/svg">
<g clip-path="url(#clip0_185_1325)">
<path fill-rule="evenodd" clip-rule="evenodd" d="M4 12C4.5625 12 5.0312 12.4375 5.0312 13V15H7C7.5625 15 8 15.4375 8 16C8 16.5312 7.5625 17 7 17H4C3.4688 17 3 16.5312 3 16V13C3 12.4375 3.4688 12 4 12ZM15.9688 12.0312C16.5312 12.0312 16.9688 12.4688 16.9688 13.0312V16C16.9688 16.5312 16.5312 17 15.9688 17H12.9688C12.4062 17 11.9688 16.5312 11.9688 16C11.9688 15.4375 12.4062 15 12.9688 15H14.9688V13.0312C14.9688 12.4688 15.4375 12.0312 15.9688 12.0312ZM16 3C16.5312 3 17 3.4688 17 4V7C17 7.5625 16.5312 8 16 8C15.4375 8 14.9688 7.5625 14.9688 7V5H13C12.4375 5 12 4.5625 12 4C12 3.4688 12.4375 3 13 3H16ZM7 3C7.5625 3 8 3.4688 8 4C8 4.5625 7.5625 5 7 5H5V7C5 7.5625 4.5625 8 4 8C3.4688 8 3 7.5625 3 7V4C3 3.4688 3.4688 3 4 3H7Z" fill="#1A1C1F"/>
</g>
<defs>
<clipPath id="clip0_185_1325">
<rect width="20" height="20" fill="white"/>
</clipPath>
</defs>
</svg>

<svg xmlns="http://www.w3.org/2000/svg" width="20" height="20" fill="none"><g clip-path="url(#a)"><path fill="#1A1C1F" fill-rule="evenodd" d="M4 12c.563 0 1.031.438 1.031 1v2H7c.563 0 1 .438 1 1 0 .531-.437 1-1 1H4c-.531 0-1-.469-1-1v-3c0-.562.469-1 1-1m11.969.031c.562 0 1 .438 1 1V16c0 .531-.438 1-1 1h-3c-.563 0-1-.469-1-1 0-.562.437-1 1-1h2v-1.969c0-.562.469-1 1-1M16 3c.531 0 1 .469 1 1v3c0 .563-.469 1-1 1-.562 0-1.031-.437-1.031-1V5H13c-.562 0-1-.437-1-1 0-.531.438-1 1-1zM7 3c.563 0 1 .469 1 1 0 .563-.437 1-1 1H5v2c0 .563-.437 1-1 1-.531 0-1-.437-1-1V4c0-.531.469-1 1-1z" clip-rule="evenodd"/></g><defs><clipPath id="a"><path fill="#fff" d="M0 0h20v20H0z"/></clipPath></defs></svg>
